scalable/mimes/application-vnd.ms-access.svg

<?xml version="1.0" encoding="UTF-8" standalone="no"?>
<!-- Created with Inkscape (http://www.inkscape.org/) -->

<svg
   xmlns:dc="http://purl.org/dc/elements/1.1/"
   xmlns:cc="http://creativecommons.org/ns#"
   xmlns:rdf="http://www.w3.org/1999/02/22-rdf-syntax-ns#"
   xmlns:svg="http://www.w3.org/2000/svg"
   xmlns="http://www.w3.org/2000/svg"
   xmlns:xlink="http://www.w3.org/1999/xlink"
   xmlns:sodipodi="http://sodipodi.sourceforge.net/DTD/sodipodi-0.dtd"
   xmlns:inkscape="http://www.inkscape.org/namespaces/inkscape"
   id="svg2677"
   width="48"
   height="48"
   version="1.0"
   sodipodi:docname="application-vnd.ms-access.svg"
   inkscape:version="0.92.3 (2405546, 2018-03-11)">
  <metadata
     id="metadata71">
    <rdf:RDF>
      <cc:Work
         rdf:about="">
        <dc:format>image/svg+xml</dc:format>
        <dc:type
           rdf:resource="http://purl.org/dc/dcmitype/StillImage" />
        <dc:title></dc:title>
      </cc:Work>
    </rdf:RDF>
  </metadata>
  <sodipodi:namedview
     pagecolor="#ffffff"
     bordercolor="#666666"
     borderopacity="1"
     objecttolerance="10"
     gridtolerance="10"
     guidetolerance="10"
     inkscape:pageopacity="0"
     inkscape:pageshadow="2"
     inkscape:window-width="1366"
     inkscape:window-height="714"
     id="namedview69"
     showgrid="false"
     inkscape:zoom="10.520833"
     inkscape:cx="24"
     inkscape:cy="24"
     inkscape:window-x="0"
     inkscape:window-y="25"
     inkscape:window-maximized="1"
     inkscape:current-layer="svg2677" />
  <defs
     id="defs2679">
    <linearGradient
       id="linearGradient2642"
       x1="302.86"
       x2="302.86"
       y1="366.65"
       y2="609.51"
       gradientTransform="matrix(.067325 0 0 .0147 -.34114 37.04)"
       gradientUnits="userSpaceOnUse">
      <stop
         id="stop5050"
         style="stop-opacity:0"
         offset="0" />
      <stop
         id="stop5056"
         offset=".5" />
      <stop
         id="stop5052"
         style="stop-opacity:0"
         offset="1" />
    </linearGradient>
    <radialGradient
       id="radialGradient2639"
       cx="605.71"
       cy="486.65"
       r="117.14"
       gradientTransform="matrix(-.02304 0 0 .0147 21.623 37.04)"
       gradientUnits="userSpaceOnUse"
       xlink:href="#linearGradient5060" />
    <linearGradient
       id="linearGradient5060">
      <stop
         id="stop5062"
         offset="0" />
      <stop
         id="stop5064"
         style="stop-opacity:0"
         offset="1" />
    </linearGradient>
    <radialGradient
       id="radialGradient2636"
       cx="605.71"
       cy="486.65"
       r="117.14"
       gradientTransform="matrix(.02304 0 0 .0147 26.361 37.04)"
       gradientUnits="userSpaceOnUse"
       xlink:href="#linearGradient5060" />
    <linearGradient
       id="linearGradient2633"
       x1="-51.786"
       x2="-51.786"
       y1="50.786"
       y2="2.9062"
       gradientTransform="matrix(.8075 0 0 .89483 59.41 -2.9806)"
       gradientUnits="userSpaceOnUse">
      <stop
         id="stop3106"
         style="stop-color:#aaa"
         offset="0" />
      <stop
         id="stop3108"
         style="stop-color:#c8c8c8"
         offset="1" />
    </linearGradient>
    <linearGradient
       id="linearGradient2631"
       x1="25.132"
       x2="25.132"
       y1=".98521"
       y2="47.013"
       gradientTransform="matrix(1 0 0 .95617 -1.0065e-7 -1.9149)"
       gradientUnits="userSpaceOnUse">
      <stop
         id="stop3602"
         style="stop-color:#f4f4f4"
         offset="0" />
      <stop
         id="stop3604"
         style="stop-color:#dbdbdb"
         offset="1" />
    </linearGradient>
    <radialGradient
       id="radialGradient2628"
       cx="102"
       cy="112.3"
       r="139.56"
       gradientTransform="matrix(.3617 0 0 -.39078 .85106 47.517)"
       gradientUnits="userSpaceOnUse">
      <stop
         id="stop41"
         style="stop-color:#b7b8b9"
         offset="0" />
      <stop
         id="stop47"
         style="stop-color:#ececec"
         offset=".18851" />
      <stop
         id="stop49"
         style="stop-color:#fafafa;stop-opacity:0"
         offset=".25718" />
      <stop
         id="stop51"
         style="stop-color:#fff;stop-opacity:0"
         offset=".30111" />
      <stop
         id="stop53"
         style="stop-color:#fafafa;stop-opacity:0"
         offset=".5313" />
      <stop
         id="stop55"
         style="stop-color:#ebecec;stop-opacity:0"
         offset=".8449" />
      <stop
         id="stop57"
         style="stop-color:#e1e2e3;stop-opacity:0"
         offset="1" />
    </radialGradient>
    <linearGradient
       id="linearGradient2625"
       x1="24"
       x2="24"
       y1="2"
       y2="46.017"
       gradientTransform="matrix(1 0 0 .97778 0 -.96667)"
       gradientUnits="userSpaceOnUse">
      <stop
         id="stop3213"
         style="stop-color:#fff"
         offset="0" />
      <stop
         id="stop3215"
         style="stop-color:#fff;stop-opacity:0"
         offset="1" />
    </linearGradient>
    <filter
       id="filter3212"
       x="-.14846"
       y="-.16434"
       width="1.2969"
       height="1.3287"
       color-interpolation-filters="sRGB">
      <feGaussianBlur
         id="feGaussianBlur3214"
         stdDeviation="0.77391625" />
    </filter>
    <linearGradient
       id="linearGradient2621"
       x1="32.892"
       x2="36.358"
       y1="8.059"
       y2="5.4565"
       gradientTransform="matrix(.9977 0 0 1.0407 .1638 -1.1058)"
       gradientUnits="userSpaceOnUse">
      <stop
         id="stop8591"
         style="stop-color:#fefefe"
         offset="0" />
      <stop
         id="stop8593"
         style="stop-color:#cbcbcb"
         offset="1" />
    </linearGradient>
    <radialGradient
       id="radialGradient2675"
       cx="22.902"
       cy="45.867"
       r="7.9059"
       gradientTransform="matrix(.69765 0 0 .29961 12.507 18.89)"
       gradientUnits="userSpaceOnUse">
      <stop
         id="stop3197"
         offset="0" />
      <stop
         id="stop3199"
         style="stop-opacity:0"
         offset="1" />
    </radialGradient>
    <radialGradient
       id="radialGradient2672"
       cx="22.902"
       cy="45.867"
       r="7.9059"
       gradientTransform="matrix(.75875 0 0 .32584 -.80598 19.479)"
       gradientUnits="userSpaceOnUse">
      <stop
         id="stop3203"
         offset="0" />
      <stop
         id="stop3205"
         style="stop-opacity:0"
         offset="1" />
    </radialGradient>
    <radialGradient
       id="radialGradient2668"
       cx="17.059"
       cy="41.059"
       r="5.7385"
       fx="14.638"
       fy="38.175"
       gradientTransform="matrix(.66498 0 -.10886 .63739 9.9382 5.2626)"
       gradientUnits="userSpaceOnUse">
      <stop
         id="stop3877"
         style="stop-color:#aaa"
         offset="0" />
      <stop
         id="stop3879"
         style="stop-color:#4d4d4d"
         offset="1" />
    </radialGradient>
    <radialGradient
       id="radialGradient2665"
       cx="17.059"
       cy="41.059"
       r="5.7385"
       fx="14.109"
       fy="38.981"
       gradientTransform="matrix(.66333 0 -.10859 .6358 21.997 3.4975)"
       gradientUnits="userSpaceOnUse">
      <stop
         id="stop3871"
         style="stop-color:#aaa"
         offset="0" />
      <stop
         id="stop3873"
         style="stop-color:#4d4d4d"
         offset="1" />
    </radialGradient>
    <linearGradient
       id="linearGradient2662"
       x1="28.739"
       x2="25.4"
       y1="144.12"
       y2="119.86"
       gradientTransform="matrix(.22147 0 0 .22311 14.032 -16.079)"
       gradientUnits="userSpaceOnUse">
      <stop
         id="stop3239"
         style="stop-color:#fff"
         offset="0" />
      <stop
         id="stop3241"
         style="stop-color:#fff;stop-opacity:.37931"
         offset="1" />
    </linearGradient>
    <linearGradient
       id="linearGradient2659"
       x1="28.739"
       x2="26.257"
       y1="144.12"
       y2="125.39"
       gradientTransform="matrix(.44563 0 0 .22311 20.716 -17.657)"
       gradientUnits="userSpaceOnUse">
      <stop
         id="stop3245"
         style="stop-color:#fff"
         offset="0" />
      <stop
         id="stop3247"
         style="stop-color:#fff;stop-opacity:.37931"
         offset="1" />
    </linearGradient>
    <linearGradient
       id="linearGradient2487"
       x1="24.239"
       x2="24.239"
       y1="44.110001"
       y2="0.19080999"
       gradientTransform="matrix(0.99013,0,0,1.01,4.2199313,-5.0784796)"
       gradientUnits="userSpaceOnUse">
      <stop
         id="stop4108"
         style="stop-color:#51293c"
         offset="0" />
      <stop
         id="stop4110"
         style="stop-color:#876374"
         offset="1" />
    </linearGradient>
    <linearGradient
       id="linearGradient2487-3"
       x1="24.239"
       x2="24.239"
       y1="44.110001"
       y2="0.19080999"
       gradientTransform="matrix(0.90436734,0,0,0.92251624,5.899044,-4.336767)"
       gradientUnits="userSpaceOnUse">
      <stop
         id="stop4108-6"
         style="stop-color:#6c5367;stop-opacity:1"
         offset="0" />
      <stop
         id="stop4110-7"
         style="stop-color:#916f8a;stop-opacity:1"
         offset="1" />
    </linearGradient>
  </defs>
  <g
     transform="translate(2.4685e-4,-0.00110478)"
     id="g854">
    <path
       style="fill:#ac93a7"
       inkscape:connector-curvature="0"
       id="path9"
       d="M 34.985226,0.03118902 40.884732,17.419222 33.054969,47.969764 H 14.94365 L 7.1132133,17.419222 13.01243,0.03118902 Z" />
    <path
       style="fill:#c8b7c4"
       inkscape:connector-curvature="0"
       id="path11"
       d="m 18.278636,43.816791 -3.335307,4.152545 h 18.112702 l -3.335308,-4.152545 z" />
    <g
       style="fill:#916f8a;stroke-width:0.12053"
       id="g15">
      <path
         inkscape:connector-curvature="0"
         id="path13"
         d="m 29.720408,43.818364 3.335244,4.152681 7.830641,-30.551027 -4.440791,0.160827 z M 7.1136887,17.420251 14.942733,47.971278 18.277977,43.818597 11.552883,17.581287 Z M 13.012656,0.03093156 16.098417,4.1836121 h 15.801631 l 3.085761,-4.15268054 z" />
    </g>
    <g
       style="fill:#6c5367"
       id="g19">
      <path
         inkscape:connector-curvature="0"
         id="path17"
         d="M 16.09834,4.1839617 11.552709,17.580266 7.1132133,17.419222 13.01243,0.03118902 Z M 34.985226,0.03118902 40.884732,17.419222 36.444948,17.580266 31.899316,4.1839617 Z" />
    </g>
    <path
       id="text4083"
       d="M 28.749771,28.545 C 28.300615,26.9506 27.851469,25.356291 27.40235,23.76189 h -6.791181 l -1.36094,4.78311 h -4.217544 c 2.133479,-6.7256 4.266958,-13.451383 6.400436,-20.1766176 h 5.106813 C 28.682364,15.093983 30.824885,21.819765 32.967315,28.545 Z m -2.317616,-8.356627 c -0.740187,-2.664611 -1.592848,-5.297709 -2.235321,-7.989173 -0.12412,-0.405423 -0.178996,-1.483607 -0.293707,-0.484276 -0.627412,2.859983 -1.492559,5.657126 -2.281447,8.473449 h 4.81042 z"
       style="opacity:0.4;fill:#ffffff;stroke-width:0.91338241"
       inkscape:connector-curvature="0" />
    <path
       id="text3893"
       d="m 28.749771,27.631618 c -0.449156,-1.594401 -0.898302,-3.18871 -1.347421,-4.78311 h -6.791181 l -1.36094,4.78311 H 15.032685 C 17.166164,20.906017 19.299643,14.180235 21.433121,7.455 h 5.106813 c 2.14243,6.7256 4.284951,13.451383 6.427381,20.176618 z m -2.317616,-8.356627 c -0.740187,-2.664611 -1.592848,-5.29771 -2.235321,-7.989174 -0.12412,-0.405423 -0.178996,-1.4836069 -0.293707,-0.484275 -0.627412,2.859983 -1.492559,5.657125 -2.281447,8.473449 h 4.81042 z"
       style="fill:url(#linearGradient2487-3);stroke-width:0.91338241"
       inkscape:connector-curvature="0" />
  </g>
</svg>

<svg xmlns="http://www.w3.org/2000/svg" width="48" height="48" version="1"><defs><linearGradient id="a"><stop offset="0"/><stop offset="1" stop-opacity="0"/></linearGradient><linearGradient id="b" x1="24.24" x2="24.24" y1="44.11" y2=".19" gradientTransform="matrix(.90437 0 0 .92252 5.9 -4.34)" gradientUnits="userSpaceOnUse"><stop offset="0" stop-color="#6c5367"/><stop offset="1" stop-color="#916f8a"/></linearGradient></defs><path d="M34.99.03l5.9 17.39-7.83 30.55H14.94L7.11 17.42 13.01.03z" fill="#ac93a7"/><path d="M18.28 43.82l-3.34 4.15h18.12l-3.34-4.15z" fill="#c8b7c4"/><path d="M29.72 43.82l3.34 4.15 7.83-30.55-4.44.16zm-22.6-26.4l7.82 30.55 3.34-4.15-6.73-26.24zM13.01.03l3.08 4.15h15.8L34.99.03z" fill="#916f8a" stroke-width=".12"/><path d="M16.1 4.18l-4.55 13.4-4.44-.16L13.01.03zM34.99.03l5.9 17.39-4.44.16-4.55-13.4z" fill="#6c5367"/><path d="M28.75 28.54l-1.35-4.78h-6.79l-1.36 4.78h-4.22l6.4-20.17h5.11l6.43 20.17zm-2.32-8.35c-.74-2.67-1.59-5.3-2.23-8-.13-.4-.18-1.48-.3-.48-.62 2.86-1.49 5.66-2.28 8.48h4.81z" opacity=".4" fill="#fff"/><path d="M28.75 27.63l-1.35-4.78h-6.79l-1.36 4.78h-4.22l6.4-20.17h5.11l6.43 20.17zm-2.32-8.36c-.74-2.66-1.6-5.3-2.23-7.98-.13-.41-.18-1.49-.3-.49-.62 2.86-1.49 5.66-2.28 8.47h4.81z" fill="url(#b)"/></svg>
